X:234
T: SCHOENE MINKA
N: B0721
O: Europa, Mitteleuropa, Deutschland; Russland (Melodie)
R: Liebes - Lied, Abschied
M: 4/4
L: 1/8
K: A
 | A3GA3G | A2=c2B2A2 |
G3FG3F | G2B2A2G2 |
A3GA3G | A2=c2B2A2 |
GBBee3G | A4z4 |
=c3Bc3B | =c2e2d2c2 |
B3AB3A | B2d2=c2B2 |
A3GA3G | A2=c2B2A2 |
GBBee3G | A4z4

@@@ Tune index: 2452
